Adwaita++-Dark/actions/22/snap-nodes-cusp.svg

<svg height="22" viewBox="0 0 22 22" width="22" xmlns="http://www.w3.org/2000/svg">
  <path d="m1.0195312 1.5a.50005.50005 0 0 0 -.0507812.0019531.50005.50005 0 0 0 -.03320312.9960938s3.68612812.5131412 6.29882812 2.1757812c1.3064.83132 2.3077406 1.9094125 2.5566406 3.3203125.2248504 1.2741-.1579156 2.9106124-1.6660156 5.0078124h-1.1230469v3h2.9999999v-1.667969c2.3593-.3912 3.767556-1.448421 4.535156-2.544922.9648-1.378299.964844-2.7871089.964844-2.7871089a.50005.50005 0 1 0 -1 0s.000044 1.0911909-.785156 2.2128909c-.58758.8394-1.776444 1.604484-3.714844 1.958984v-.171875h-.8222655c1.2820005-1.9752 1.8515035-3.7302874 1.5957035-5.1796874-.31352-1.7766-1.5621597-3.0734875-3.0058598-3.9921875-2.8872999-1.8374-6.7011718-2.3242187-6.7011718-2.3242187a.50005.50005 0 0 0 -.0488282-.0058594z" fill="#e6ddff" transform="translate(3 3)"/>
</svg>

<svg xmlns="http://www.w3.org/2000/svg" width="22" height="22" viewBox="0 0 22 22">
 <defs>
  <style id="current-color-scheme" type="text/css">
   .ColorScheme-Text { color:#E6DDFF; } .ColorScheme-Highlight { color:#4285f4; }
  </style>
 </defs>
 <path style="fill:currentColor" class="ColorScheme-Text" d="M 1.0195312 1.5 A 0.50005 0.50005 0 0 0 0.96875 1.5019531 A 0.50005 0.50005 0 0 0 0.93554688 2.4980469 C 0.93554688 2.4980469 4.621675 3.0111881 7.234375 4.6738281 C 8.540775 5.5051481 9.5421156 6.5832406 9.7910156 7.9941406 C 10.015866 9.2682406 9.6331 10.904753 8.125 13.001953 L 7.0019531 13.001953 L 7.0019531 16.001953 L 10.001953 16.001953 L 10.001953 14.333984 C 12.361253 13.942784 13.769509 12.885563 14.537109 11.789062 C 15.501909 10.410763 15.501953 9.0019531 15.501953 9.0019531 A 0.50005 0.50005 0 1 0 14.501953 9.0019531 C 14.501953 9.0019531 14.501997 10.093144 13.716797 11.214844 C 13.129217 12.054244 11.940353 12.819328 10.001953 13.173828 L 10.001953 13.001953 L 9.1796875 13.001953 C 10.461688 11.026753 11.031191 9.2716656 10.775391 7.8222656 C 10.461871 6.0456656 9.2132313 4.7487781 7.7695312 3.8300781 C 4.8822313 1.9926781 1.0683594 1.5058594 1.0683594 1.5058594 A 0.50005 0.50005 0 0 0 1.0195312 1.5 z" transform="translate(3 3)"/>
</svg>
